media/service-04.svg

<svg width="100" height="100" viewBox="0 0 100 100" fill="none" xmlns="http://www.w3.org/2000/svg">
<circle cx="50" cy="50" r="50" fill="#0F75BC" fill-opacity="0.12"/>
<path d="M74.1875 48.3758L74.1867 39.4383C74.1867 34.7843 70.6109 30.955 66.0625 30.5423V28.8766C66.0625 28.4273 65.6993 28.0641 65.25 28.0641H64.4367V28.0633C64.4367 27.614 64.0735 27.2508 63.6242 27.2508C63.1749 27.2508 62.8117 27.614 62.8117 28.0633V28.0641H62V28.0633C62 27.614 61.6368 27.2508 61.1875 27.2508C60.7382 27.2508 60.375 27.614 60.375 28.0633V28.0641H59.5649V24.8125C59.5649 24.3632 59.2017 24 58.7524 24H56.3141C55.8648 24 55.5016 24.3632 55.5016 24.8125V28.0641H54.6883V28.0633C54.6883 27.614 54.3251 27.2508 53.8758 27.2508C53.4265 27.2508 53.0633 27.614 53.0633 28.0633V28.0641H52.2516V28.0633C52.2516 27.614 51.8884 27.2508 51.4391 27.2508C50.9898 27.2508 50.6266 27.614 50.6266 28.0633V28.0641H49.8125C49.3632 28.0641 49 28.4273 49 28.8766V30.5423C44.4516 30.955 40.875 34.7851 40.875 39.4383V41.8742H36.8125V40.2492C36.8125 39.7999 36.4493 39.4367 36 39.4367H23.8125C23.3632 39.4367 23 39.7999 23 40.2492V48.3766C23 48.8259 23.3632 49.1891 23.8125 49.1891V55.6859C23.8125 57.9259 25.6349 59.7484 27.875 59.7484H40.875V62.1883C40.875 64.5543 41.8061 66.7026 43.3117 68.3024V75.1875C43.3117 75.6368 43.6749 76 44.1242 76H70.9375C71.3868 76 71.75 75.6368 71.75 75.1875V68.3024C73.2564 66.7018 74.1867 64.5543 74.1867 62.1883V53.2508H74.1875C74.6368 53.2508 75 52.8876 75 52.4383V49.1883C75 48.739 74.6368 48.3758 74.1875 48.3758ZM41.6891 51.6258V50.0008H73.375V51.6258H41.6891ZM28.6875 49.1891H36C36.4493 49.1891 36.8125 48.8259 36.8125 48.3766V46.7492H40.875V48.3758C40.4265 48.3766 40.0641 48.7398 40.0641 49.1883V52.4383C40.0641 52.8868 40.4265 53.25 40.875 53.2508V54.8734H28.6875V49.1891ZM57.1266 25.625H57.9399V28.0641H57.1266V25.625ZM50.625 29.6891H56.3141H58.7524H64.4375V30.5008H50.625V29.6891ZM42.5 39.4383C42.5 35.4059 45.7801 32.1258 49.8125 32.1258H65.2492C69.2816 32.1258 72.5617 35.4059 72.5617 39.4383V48.3758H42.5V45.9367V42.6867V39.4383ZM40.875 43.4992V45.1242H36.8125V43.4992H40.875ZM24.625 41.0617H35.1875V42.6867V45.9367V47.5641H27.875H24.625V41.0617ZM27.875 58.1234C26.5311 58.1234 25.4375 57.0298 25.4375 55.6859V49.1891H27.0625V55.6859C27.0625 56.1352 27.4257 56.4984 27.875 56.4984H40.875V58.1234H27.875ZM44.9367 74.375V69.669C46.3407 70.5871 48.0136 71.1258 49.8125 71.1258H65.2492C67.0481 71.1258 68.721 70.5871 70.125 69.669V74.375H44.9367ZM72.5617 62.1883C72.5617 64.222 71.7264 66.0623 70.3818 67.3883C70.3728 67.3973 70.3639 67.4046 70.3549 67.4135C69.0363 68.7021 67.2349 69.5 65.2492 69.5H49.8125C47.8267 69.5 46.0262 68.7021 44.7067 67.4135C44.6978 67.4037 44.6889 67.3964 44.6799 67.3883C43.3353 66.0623 42.5 64.222 42.5 62.1883V53.2508H72.5617V62.1883Z" fill="#0F75BC"/>
</svg>

<svg xmlns="http://www.w3.org/2000/svg" width="100" height="100" viewBox="0 0 100 100"><g transform="translate(-935 -352)"><circle cx="50" cy="50" r="50" transform="translate(935 352)" fill="#ecf6fd"/><path d="M74.188,48.376V39.438a8.946,8.946,0,0,0-8.124-8.9V28.877a.812.812,0,0,0-.812-.812h-.813a.813.813,0,0,0-1.625,0H62a.813.813,0,0,0-1.625,0h-.81V24.813A.812.812,0,0,0,58.752,24H56.314a.812.812,0,0,0-.812.813v3.252h-.813a.813.813,0,0,0-1.625,0h-.812a.813.813,0,0,0-1.625,0h-.814a.812.812,0,0,0-.812.813v1.666a8.947,8.947,0,0,0-8.125,8.9v2.436H36.813V40.249A.812.812,0,0,0,36,39.437H23.813a.812.812,0,0,0-.812.813v8.127a.812.812,0,0,0,.813.813v6.5a4.067,4.067,0,0,0,4.063,4.063h13v2.44A8.9,8.9,0,0,0,43.312,68.3v6.885a.812.812,0,0,0,.813.813H70.938a.812.812,0,0,0,.813-.812V68.3a8.894,8.894,0,0,0,2.437-6.114V53.251h0A.812.812,0,0,0,75,52.438v-3.25A.812.812,0,0,0,74.188,48.376Zm-32.5,3.25V50H73.375v1.625Zm-13-2.437H36a.812.812,0,0,0,.813-.812V46.749h4.063v1.627a.812.812,0,0,0-.811.813v3.25a.812.812,0,0,0,.811.813v1.623H28.688ZM57.127,25.625h.813v2.439h-.813Zm-6.5,4.064H64.438V30.5H50.625ZM42.5,39.438a7.32,7.32,0,0,1,7.313-7.312H65.249a7.32,7.32,0,0,1,7.313,7.313v8.938H42.5V39.438ZM40.875,43.5v1.625H36.813V43.5Zm-16.25-2.437H35.188v6.5H24.625Zm3.25,17.062a2.44,2.44,0,0,1-2.437-2.437v-6.5h1.625v6.5a.812.812,0,0,0,.813.813h13v1.625ZM44.937,74.375V69.669a8.879,8.879,0,0,0,4.876,1.457H65.249a8.879,8.879,0,0,0,4.876-1.457v4.706ZM72.562,62.188a7.283,7.283,0,0,1-2.18,5.2l-.027.025A7.286,7.286,0,0,1,65.249,69.5H49.813a7.287,7.287,0,0,1-5.106-2.087.347.347,0,0,0-.027-.025,7.283,7.283,0,0,1-2.18-5.2V53.251H72.562Z" transform="translate(935 352)" fill="#0f75bc"/></g></svg>
